X: 20594
T: John O'Reilly The Active
R: jig
M: 6/8
K: Amajor
E|(EA).A .A.G.A|(dB).A GAB|(c/d/e).c .d.B.c|A>BA A2E|
EAA AGA|dBA GAB|(c/d/e).c .d.B.c|.A>.B.A .A2||A|
.A.=g.g .g2a|(=ge).e (dB).B|.A.a.a (a=g).a|(b=g).e !fermata!e3 d/c/|
.d.e.f =.g.a.g|.f.d.c .B.c.d|e2 ^d (e/f/=g).e|(e/d/).B.A .A2A|
A=gg g2a|=gee dBB|Aaa a=ga|b=ge !fermata!e2 d/c/|
.d.e.f =.g.a.g|.f.d.c .B.c.d|!fermata![c2e2]^d (e/f/=g).e|.d.B.A [C3E3A3]||

